packages/core/src/svgs/sswp.svg

<svg width="24" height="24" viewBox="0 0 24 24" fill="none" xmlns="http://www.w3.org/2000/svg">
<g clip-path="url(#clip0_31_19294)">
<path d="M0 0H24V24H0V0Z" fill="url(#paint0_linear_31_19294)"/>
<path fill-rule="evenodd" clip-rule="evenodd" d="M12.1285 11.6573C12.1215 11.6699 12.1111 11.6803 12.0985 11.6873C12.0856 11.6915 12.0771 11.6873 12.0685 11.6787C11.6627 10.9717 11.2013 10.2981 10.6885 9.66441C10.1369 8.94613 9.47084 8.32353 8.71705 7.82155C8.3742 7.61155 8.04848 7.46584 7.73134 7.38869C7.29151 7.26775 6.8281 7.26095 6.38491 7.36894C5.94172 7.47692 5.53338 7.69613 5.19848 8.00584C4.37792 8.74468 3.81232 9.72435 3.58277 10.8044C3.4542 11.3058 3.41134 11.7644 3.43705 12.1844C3.47991 12.8787 3.64705 13.5601 3.93848 14.233C4.21391 14.8965 4.62904 15.4929 5.15563 15.9815C5.42524 16.2418 5.74781 16.4409 6.10134 16.5651C6.45487 16.6894 6.83104 16.7359 7.2042 16.7015C8.14705 16.6158 9.10277 16.0415 10.0628 14.9873C10.8385 14.1301 11.5071 13.2216 12.0642 12.2615C12.0728 12.2444 12.0856 12.2444 12.0942 12.2615C12.864 13.5991 13.8469 14.802 15.0042 15.823C15.4049 16.164 15.8676 16.4245 16.3671 16.5901C16.9542 16.7744 17.5156 16.753 18.0556 16.5344C18.5856 16.3052 19.0423 15.9345 19.3756 15.463C19.9683 14.6532 20.3564 13.7122 20.5071 12.7201C20.6828 11.6701 20.4985 10.5858 19.9499 9.45869C19.6177 8.6956 19.0599 8.0525 18.3513 7.61584C17.989 7.40759 17.5801 7.29374 17.1622 7.28476C16.7443 7.27577 16.3309 7.37193 15.9599 7.56441C15.4799 7.78298 15.0171 8.10012 14.5756 8.52012C13.6137 9.44043 12.7908 10.4958 12.1328 11.653L12.1285 11.6573ZM6.77134 7.50012C6.00848 7.64584 5.34848 8.10441 4.79991 8.88441C4.32674 9.56158 4.00247 10.3314 3.84848 11.143C3.7605 11.5613 3.74024 11.9911 3.78848 12.4158C3.8742 13.1058 4.07134 13.7615 4.37134 14.3873C4.9842 15.6473 5.78563 16.3544 6.77134 16.513C6.77991 16.513 6.7842 16.513 6.77991 16.5215C6.77991 16.5301 6.77991 16.5344 6.77134 16.5344C6.33848 16.513 5.9142 16.3501 5.50705 16.0458C5.13846 15.7711 4.82327 15.4312 4.57705 15.043C4.0242 14.1901 3.70277 13.2558 3.6042 12.2444C3.58705 12.073 3.58705 11.9101 3.59991 11.7558C3.68762 10.6607 4.08443 9.61292 4.7442 8.73441C5.03022 8.34998 5.39011 8.02651 5.80277 7.78298C6.13676 7.58485 6.51598 7.47566 6.9042 7.46584C6.91277 7.46584 6.91705 7.46584 6.91705 7.47869C6.91705 7.48298 6.91705 7.48726 6.9042 7.48726C6.86134 7.48726 6.81848 7.48726 6.77563 7.50012H6.77134ZM20.1085 13.0158C20.3356 11.9873 20.2199 10.9287 19.7613 9.83584C19.2899 8.70869 18.6256 7.96726 17.7771 7.61584C17.6785 7.57298 17.5285 7.53441 17.3185 7.49584L17.2199 7.47869C17.2113 7.47441 17.2113 7.47441 17.2199 7.47441C17.4685 7.47012 17.6999 7.50869 17.9142 7.59441C18.7671 7.92869 19.4356 8.66584 19.9199 9.81012C20.3746 10.8095 20.5021 11.9269 20.2842 13.003C20.1742 13.5192 20.0015 14.0201 19.7699 14.4944C19.5307 15.0049 19.1995 15.4669 18.7928 15.8573C18.3946 16.2563 17.864 16.4957 17.3013 16.5301C17.3013 16.5215 17.3013 16.5173 17.3099 16.5173C18.2056 16.393 18.9471 15.7544 19.5428 14.5973C19.7975 14.0981 19.9862 13.5679 20.1042 13.0201L20.1085 13.0158ZM4.00705 11.2073C3.91345 11.7029 3.91345 12.2116 4.00705 12.7073C4.14419 13.5279 4.45545 14.3098 4.91991 15.0001C5.47705 15.8144 6.14134 16.2644 6.91705 16.363C7.58323 16.4269 8.24901 16.2371 8.78134 15.8315V15.8144L8.77705 15.8015C8.4342 15.9987 8.08277 16.1273 7.72277 16.1873C7.28023 16.2563 6.82716 16.1937 6.41991 16.0073C6.01183 15.8223 5.65127 15.5467 5.36563 15.2015C4.78854 14.5088 4.39111 13.6845 4.20848 12.8016C3.96848 11.7387 4.14848 10.6415 4.75705 9.51012C4.99942 9.05114 5.3216 8.63899 5.70848 8.29298C6.08688 7.94516 6.56228 7.72092 7.07134 7.65012C7.10134 7.65012 7.10134 7.64155 7.07134 7.63298C7.03663 7.6221 6.99966 7.62062 6.9642 7.62869L6.83563 7.65441C6.6042 7.69726 6.43705 7.74869 6.32991 7.79155C5.6781 8.09568 5.13515 8.59226 4.7742 9.21441C4.39666 9.82404 4.13512 10.4982 4.00277 11.203L4.00705 11.2073ZM17.0099 7.65012C17.045 7.63495 17.0833 7.62905 17.1213 7.63298C17.4899 7.67584 17.8113 7.78298 18.0899 7.96298C18.6042 8.28869 19.0328 8.77726 19.3842 9.42012C19.6954 10.0015 19.9042 10.6322 20.0013 11.2844C20.0871 11.8458 20.0656 12.4201 19.9371 13.0073C19.7821 13.7595 19.4791 14.4733 19.0456 15.1073C18.5356 15.8358 17.9313 16.2515 17.2328 16.363C16.5921 16.4404 15.9464 16.2651 15.4328 15.8744C15.4242 15.8701 15.4242 15.8658 15.4285 15.8573C15.6916 15.997 15.9729 16.0994 16.2642 16.1615C16.7785 16.2773 17.2842 16.213 17.7642 15.9558C18.2269 15.7044 18.6201 15.3422 18.9085 14.9015C19.444 14.1188 19.7741 13.2139 19.8685 12.2701C19.8985 12.0087 19.8985 11.7558 19.8685 11.503C19.7644 10.4567 19.3578 9.46341 18.6985 8.64441C18.5 8.37201 18.2477 8.14323 17.9573 7.97221C17.6668 7.80119 17.3444 7.69157 17.0099 7.65012ZM16.9971 7.65012H16.9842L16.9713 7.65441H16.9671H16.9971V7.65012ZM7.24705 16.0587H7.25134V16.0415C6.56102 15.8964 5.94797 15.503 5.52848 14.9358C5.07427 14.3318 4.7503 13.6401 4.57705 12.9044C4.40692 12.2243 4.41134 11.5123 4.58991 10.8344C4.79605 9.98134 5.22836 9.19963 5.84134 8.57155C6.24322 8.16001 6.76551 7.88686 7.33277 7.79155H7.32848C6.98402 7.81106 6.64781 7.90462 6.34277 8.06584C5.81412 8.3683 5.37268 8.80236 5.06134 9.32584C4.73927 9.84296 4.5074 10.411 4.37563 11.0058C4.13563 12.0815 4.33277 13.1958 4.97563 14.3487C5.19745 14.7563 5.48735 15.123 5.83277 15.433C6.23134 15.7844 6.70277 15.9901 7.24705 16.0544V16.0587ZM16.8085 7.80012C17.2413 7.82155 17.6356 7.95869 17.9871 8.21584C18.4758 8.58515 18.8695 9.06555 19.1356 9.61726C19.4099 10.1487 19.5899 10.7315 19.6842 11.3615C19.7313 11.6915 19.7356 12.0215 19.6928 12.3473C19.5951 13.152 19.3262 13.9265 18.9042 14.6187C18.3985 15.4373 17.7728 15.9044 17.0313 16.033C16.8299 16.063 16.8256 16.0501 17.0228 15.9901C17.4409 15.8856 17.8221 15.6676 18.1242 15.3601C18.8614 14.6126 19.3391 13.6481 19.4871 12.6087C19.5767 12.1152 19.5723 11.6092 19.4742 11.1173C19.3113 10.1955 18.8993 9.33591 18.2828 8.63155C17.8986 8.19913 17.3786 7.91042 16.8085 7.81298C16.7442 7.80012 16.7442 7.79584 16.8085 7.80012ZM4.82134 11.5458C4.90705 11.0315 5.05277 10.5558 5.25848 10.1187C5.54761 9.44567 6.02921 8.87311 6.64277 8.47298C6.9516 8.27652 7.30445 8.15995 7.66953 8.13376C8.03462 8.10758 8.40049 8.1726 8.7342 8.32298C8.93991 8.40869 9.13705 8.50726 9.32134 8.62298C9.40705 8.68298 9.40705 8.67869 9.32991 8.61441C8.84041 8.20363 8.22456 7.97363 7.58563 7.96298C6.89134 7.96726 6.26991 8.29726 5.72563 8.94869C5.13527 9.66724 4.75946 10.5377 4.64134 11.4601C4.5916 12.0973 4.66904 12.738 4.86917 13.345C5.06929 13.952 5.3881 14.5132 5.80705 14.9958C5.92705 15.1287 5.93563 15.1244 5.8242 14.983C5.2242 14.1858 4.87277 13.2687 4.78705 12.2444C4.76991 12.0301 4.78277 11.7944 4.82134 11.5458ZM19.1013 11.1258C18.7971 9.82726 18.2185 8.93155 17.3742 8.42584C17.045 8.2252 16.6669 8.11906 16.2813 8.11906C15.8958 8.11906 15.5177 8.2252 15.1885 8.42584C15.1095 8.46523 15.0295 8.50239 14.9485 8.53726C15.3085 8.28012 15.6771 8.10869 16.0585 8.02298C16.5368 7.90448 17.0422 7.97187 17.4728 8.21155C17.8756 8.42584 18.2271 8.76869 18.5356 9.22726C18.846 9.69189 19.0776 10.2045 19.2213 10.7444C19.3741 11.2862 19.4163 11.8531 19.3456 12.4115C19.2423 13.4291 18.8088 14.3849 18.1113 15.133C18.0256 15.2187 18.0213 15.2187 18.0985 15.1244C18.6133 14.4877 18.9636 13.7341 19.1185 12.9301C19.2471 12.3258 19.2385 11.7215 19.1013 11.1258ZM7.53848 8.35726C7.61991 8.34441 7.67563 8.33155 7.70991 8.31441H7.71848V8.31012H7.7142C7.3542 8.31012 6.99848 8.43012 6.64277 8.67012C6.32425 8.88652 6.04824 9.15963 5.82848 9.47584C5.50092 9.93984 5.25724 10.4577 5.10848 11.0058C4.94737 11.5524 4.91365 12.1285 5.00991 12.6901C5.12563 13.3073 5.32705 13.8687 5.60991 14.3701C5.88988 14.8953 6.30963 15.3329 6.82277 15.6344C7.06566 15.7657 7.33228 15.8473 7.60705 15.8744L7.61134 15.8573C6.90916 15.6786 6.30561 15.2305 5.93134 14.6101C5.54563 14.0358 5.29277 13.3716 5.16848 12.6216C5.0972 12.1654 5.11467 11.6997 5.21991 11.2501C5.39513 10.4138 5.79863 9.64244 6.38563 9.02155C6.66713 8.74153 7.00649 8.5265 7.37991 8.39155C7.4142 8.37869 7.46563 8.36584 7.53848 8.35726ZM16.4785 8.33155H16.4656C16.4442 8.32726 16.4442 8.32298 16.4656 8.32298C16.5942 8.31441 16.7056 8.33155 16.8085 8.36584C17.3899 8.5648 17.8858 8.95643 18.2142 9.47584C18.5442 9.94726 18.7799 10.5044 18.9299 11.1387C19.1528 12.0901 19.0242 13.0758 18.5442 14.0958C18.3256 14.587 18.0041 15.0254 17.6013 15.3815C17.2928 15.6454 16.915 15.815 16.5128 15.8701V15.8487C16.7427 15.7912 16.9624 15.6987 17.1642 15.5744C17.6199 15.2686 17.9913 14.8529 18.2442 14.3658C18.5056 13.8901 18.6899 13.3715 18.7971 12.8101C18.9085 12.2101 18.8828 11.6101 18.7285 11.0101C18.5565 10.311 18.225 9.66114 17.7599 9.11155C17.4271 8.7213 16.978 8.44795 16.4785 8.33155ZM6.5142 9.12869C6.14822 9.49621 5.85967 9.93341 5.66563 10.4144C5.57134 10.6373 5.48991 10.873 5.42134 11.1216C5.16848 12.0601 5.30134 13.0415 5.8242 14.0787C6.26991 14.9573 6.85277 15.4887 7.58134 15.6644C7.62744 15.6765 7.67524 15.6809 7.72277 15.6773C7.75277 15.6773 7.75705 15.6687 7.72277 15.6601C7.15845 15.4789 6.66915 15.1176 6.32991 14.6315C5.98699 14.1518 5.73963 13.6105 5.60134 13.0373C5.42346 12.3768 5.42938 11.6803 5.61848 11.023C5.77277 10.4873 5.99563 10.0115 6.28705 9.60012C6.58175 9.16564 6.99123 8.82144 7.46991 8.60584C7.60424 8.55438 7.74357 8.51703 7.88563 8.49441C7.94563 8.48155 7.94563 8.47726 7.88563 8.47726C7.39705 8.49441 6.94277 8.70869 6.5142 9.12869ZM18.5099 11.6573C18.4156 10.933 18.1885 10.2858 17.8199 9.69869C17.3785 8.99584 16.8342 8.59298 16.1913 8.48584C16.1899 8.4862 16.1885 8.4862 16.1871 8.48584V8.47298C16.5899 8.48584 16.9585 8.62726 17.2971 8.90155C17.7243 9.26188 18.0618 9.71675 18.2828 10.2301C18.5142 10.7444 18.6513 11.2844 18.6942 11.8458C18.7113 12.0473 18.7028 12.2573 18.6728 12.4844C18.5871 13.1573 18.3813 13.7701 18.0728 14.3273C17.7782 14.9135 17.2799 15.3721 16.6713 15.6173C16.5428 15.6644 16.4099 15.6858 16.2771 15.6815C16.2513 15.6815 16.2513 15.6815 16.2771 15.6687L16.3885 15.6387C16.4742 15.6216 16.5428 15.6001 16.5856 15.583C17.1143 15.3352 17.5531 14.9294 17.8413 14.4216C18.1431 13.917 18.3521 13.3626 18.4585 12.7844C18.5356 12.3815 18.5528 12.0044 18.5099 11.6573ZM7.77848 8.70012C7.76198 8.70665 7.74469 8.71098 7.72705 8.71298C7.6242 8.72584 7.52563 8.75584 7.42705 8.80726C7.09277 8.99155 6.8142 9.21869 6.59134 9.49298V9.50584H6.60848C6.90279 9.11381 7.31878 8.83045 7.79134 8.70012H7.77848ZM16.3799 8.71726C16.4528 8.72155 16.5213 8.73869 16.5856 8.77298C17.0509 9.01359 17.4376 9.38242 17.6999 9.83584C17.6999 9.84441 17.6999 9.84869 17.6913 9.85298H17.6828C17.4322 9.42256 17.0693 9.06847 16.6328 8.82869C16.5316 8.77083 16.4216 8.73027 16.3071 8.70869H16.3499C16.3585 8.71726 16.3713 8.71726 16.3799 8.71726ZM6.72848 9.84441C6.90059 9.58098 7.12335 9.35439 7.3838 9.17782C7.64425 9.00124 7.9372 8.87819 8.24563 8.81584C8.33134 8.80298 8.33134 8.79869 8.24563 8.80298C7.70134 8.82869 7.21705 9.08155 6.79277 9.55726C6.30853 10.1177 5.98561 10.7991 5.85848 11.5287C5.81173 11.757 5.7973 11.9907 5.81563 12.223C5.87534 13.0063 6.14966 13.7581 6.60848 14.3958C7.06277 15.0258 7.60705 15.3473 8.24563 15.3687L8.2542 15.3644C8.2542 15.3558 8.2542 15.3515 8.24563 15.3473C7.98848 15.3044 7.7742 15.2401 7.60277 15.1416C6.78848 14.6744 6.26991 13.843 6.0342 12.6387C5.96024 12.2845 5.95442 11.9194 6.01705 11.563C6.12254 10.9454 6.3657 10.3595 6.72848 9.84869V9.84441ZM15.8228 8.80726H15.8185C15.8142 8.80726 15.8142 8.80726 15.8185 8.80726C15.9042 8.79869 15.9899 8.80298 16.0842 8.82441C16.9413 9.00441 17.5756 9.67298 17.9699 10.8258C18.2228 11.5544 18.2571 12.2658 18.0771 12.9558C17.9619 13.421 17.7739 13.8651 17.5199 14.2715C17.2783 14.6779 16.924 15.0054 16.4999 15.2144C16.2878 15.3039 16.0614 15.3547 15.8313 15.3644V15.3473C16.4228 15.2787 16.9199 14.9273 17.3313 14.2887C18.0085 13.2344 18.1885 12.163 17.8799 11.0744C17.7339 10.5422 17.4817 10.0451 17.1385 9.61298C16.7956 9.18441 16.3585 8.91869 15.8228 8.80726ZM6.29991 13.033C6.48792 13.7284 6.87882 14.3521 7.42277 14.8244C7.78705 15.1158 8.17705 15.2401 8.59705 15.1973C9.3042 15.133 9.95563 14.7258 10.5513 13.9973C11.0554 13.3715 11.511 12.7081 11.9142 12.013C11.9188 12.006 11.9213 11.9978 11.9213 11.9894C11.9213 11.981 11.9188 11.9728 11.9142 11.9658C11.525 11.2809 11.0592 10.6425 10.5256 10.063C10.1722 9.66316 9.73655 9.34446 9.24848 9.12869C9.00536 9.01603 8.73931 8.96163 8.47148 8.96981C8.20365 8.97799 7.94142 9.04854 7.70563 9.17584C6.97277 9.57441 6.47563 10.3115 6.22277 11.383C6.09003 11.929 6.11681 12.5017 6.29991 13.033ZM17.3828 13.8473C17.1754 14.2999 16.8459 14.6858 16.4313 14.9615C16.2214 15.0965 15.9817 15.1783 15.7331 15.1999C15.4845 15.2216 15.2343 15.1824 15.0042 15.0858C14.6272 14.9473 14.286 14.7262 14.0056 14.4387C13.8705 14.2975 13.7417 14.1502 13.6199 13.9973C13.1148 13.3617 12.6591 12.6883 12.2571 11.983C12.2528 11.9766 12.2506 11.9692 12.2506 11.9615C12.2506 11.9539 12.2528 11.9465 12.2571 11.9401C12.6782 11.1748 13.2064 10.4734 13.8256 9.85726C14.1164 9.56524 14.4558 9.32596 14.8285 9.15012C15.0517 9.03437 15.2988 8.97218 15.5502 8.96846C15.8017 8.96474 16.0505 9.0196 16.2771 9.12869C16.7199 9.36184 17.0804 9.72537 17.3099 10.1701C17.6458 10.7227 17.8295 11.3544 17.8423 12.001C17.8551 12.6476 17.6966 13.2861 17.3828 13.8515V13.8473ZM7.44848 15.3858C7.52991 15.4287 7.5942 15.4544 7.64563 15.4673C7.7742 15.4973 7.77848 15.4887 7.6542 15.4415C7.1681 15.2536 6.74992 14.9235 6.4542 14.4944V14.503C6.70705 14.8887 7.03705 15.1801 7.44848 15.3858ZM16.3713 15.463C16.761 15.3154 17.1073 15.0722 17.3785 14.7558V14.7687C17.118 15.0995 16.7664 15.3468 16.3671 15.4801C16.3628 15.4715 16.3671 15.4673 16.3713 15.463Z" fill="white"/>
</g>
<defs>
<linearGradient id="paint0_linear_31_19294" x1="4.46571" y1="4.16143" x2="29.2071" y2="32.58" gradientUnits="userSpaceOnUse">
<stop stop-color="#1A1E21"/>
<stop offset="1" stop-color="#06060A"/>
</linearGradient>
<clipPath id="clip0_31_19294">
<rect width="24" height="24" fill="white"/>
</clipPath>
</defs>
</svg>

<svg xmlns="http://www.w3.org/2000/svg" width="24" height="24" fill="none" viewBox="0 0 24 24"><g clip-path="url(#a)"><path fill="url(#b)" d="M0 0h24v24H0z"/><path fill="#fff" fill-rule="evenodd" d="M12.129 11.657a.1.1 0 0 1-.03.03q-.019.006-.03-.008a15.4 15.4 0 0 0-1.38-2.015 8.3 8.3 0 0 0-1.972-1.842 3.5 3.5 0 0 0-.986-.433 2.68 2.68 0 0 0-2.533.617 5.23 5.23 0 0 0-1.615 2.798c-.129.502-.172.96-.146 1.38a6 6 0 0 0 .501 2.049 5 5 0 0 0 1.218 1.749 2.6 2.6 0 0 0 2.048.72c.943-.086 1.899-.66 2.859-1.715a16 16 0 0 0 2.001-2.726c.009-.017.022-.017.03 0a14.2 14.2 0 0 0 2.91 3.562c.4.341.864.601 1.363.767a2.43 2.43 0 0 0 1.689-.056c.53-.229.986-.6 1.32-1.071.592-.81.98-1.75 1.131-2.743.176-1.05-.009-2.134-.557-3.261a4.08 4.08 0 0 0-1.599-1.843 2.5 2.5 0 0 0-2.391-.052q-.721.327-1.384.956a13.7 13.7 0 0 0-2.443 3.133zM6.77 7.5c-.763.146-1.423.604-1.971 1.384a5.85 5.85 0 0 0-.952 2.259 4 4 0 0 0-.06 1.273 6.3 6.3 0 0 0 .583 1.971q.921 1.889 2.4 2.126.014-.002.009.008c0 .01 0 .013-.009.013q-.652-.032-1.264-.488a3.8 3.8 0 0 1-.93-1.003 6.2 6.2 0 0 1-.973-2.799 2.7 2.7 0 0 1-.004-.488 5.8 5.8 0 0 1 1.144-3.022 3.6 3.6 0 0 1 1.059-.951 2.3 2.3 0 0 1 1.101-.317c.009 0 .013 0 .013.013 0 .004 0 .008-.013.008-.043 0-.086 0-.128.013zm13.337 5.516q.342-1.542-.347-3.18c-.471-1.127-1.135-1.869-1.984-2.22a2.3 2.3 0 0 0-.459-.12l-.098-.017q-.013-.006 0-.005.373-.007.694.12 1.28.501 2.006 2.216c.455 1 .582 2.117.364 3.193a6.5 6.5 0 0 1-.514 1.491c-.24.51-.57.973-.977 1.363a2.3 2.3 0 0 1-1.492.673c0-.009 0-.013.009-.013.896-.124 1.637-.763 2.233-1.92.255-.499.443-1.03.561-1.577zm-16.1-1.809a4 4 0 0 0-.001 1.5c.137.82.448 1.603.913 2.293.557.814 1.221 1.264 1.997 1.363a2.66 2.66 0 0 0 1.864-.531v-.018l-.004-.012a3.1 3.1 0 0 1-1.054.385 2.3 2.3 0 0 1-1.303-.18 2.95 2.95 0 0 1-1.054-.806 5.5 5.5 0 0 1-1.158-2.4c-.24-1.062-.06-2.16.549-3.29.242-.46.565-.872.951-1.218a2.53 2.53 0 0 1 1.363-.643q.045-.002 0-.017a.2.2 0 0 0-.107-.004l-.128.025a2.7 2.7 0 0 0-.506.138c-.652.304-1.195.8-1.556 1.422a5.8 5.8 0 0 0-.771 1.989zM17.01 7.65a.2.2 0 0 1 .111-.017c.369.043.69.15.969.33q.77.49 1.294 1.457c.311.582.52 1.212.617 1.864a4.7 4.7 0 0 1-.064 1.723 5.8 5.8 0 0 1-.891 2.1q-.766 1.091-1.813 1.256a2.48 2.48 0 0 1-1.8-.489q-.012-.005-.005-.017.398.21.836.305c.515.115 1.02.051 1.5-.206a3.2 3.2 0 0 0 1.145-1.054 5.66 5.66 0 0 0 .96-2.632 3.3 3.3 0 0 0 0-.767 5.4 5.4 0 0 0-1.17-2.859 2.47 2.47 0 0 0-1.69-.994m-.013 0h-.013l-.013.004h-.004.03zm-9.75 8.409h.004v-.018a2.88 2.88 0 0 1-1.723-1.105 5.5 5.5 0 0 1-.95-2.032 4.16 4.16 0 0 1 .012-2.07A4.9 4.9 0 0 1 5.84 8.572a2.7 2.7 0 0 1 1.492-.78h-.005a2.4 2.4 0 0 0-.985.274c-.529.302-.97.736-1.282 1.26a5.4 5.4 0 0 0-.685 1.68c-.24 1.076-.043 2.19.6 3.343.221.407.511.774.857 1.084q.598.526 1.414.621zM16.808 7.8q.65.032 1.18.416c.488.37.881.85 1.148 1.401.274.532.454 1.114.548 1.744q.072.496.009.986a5.7 5.7 0 0 1-.789 2.272c-.506.818-1.131 1.285-1.873 1.414q-.303.046-.008-.043a2.34 2.34 0 0 0 1.101-.63 4.9 4.9 0 0 0 1.363-2.751c.09-.494.085-1-.013-1.492a5.13 5.13 0 0 0-1.191-2.485 2.55 2.55 0 0 0-1.475-.819q-.096-.02 0-.013M4.821 11.546a5.4 5.4 0 0 1 .437-1.427c.29-.673.771-1.246 1.385-1.646a2.2 2.2 0 0 1 2.091-.15q.31.127.587.3c.086.06.086.056.009-.009a2.8 2.8 0 0 0-1.744-.651q-1.043.007-1.86.986A4.95 4.95 0 0 0 4.64 11.46a4.82 4.82 0 0 0 1.166 3.536c.12.133.129.128.017-.013a5.2 5.2 0 0 1-1.037-2.739 3 3 0 0 1 .034-.698m14.28-.42c-.304-1.299-.883-2.194-1.727-2.7a2.1 2.1 0 0 0-2.185 0q-.12.06-.24.111a3.1 3.1 0 0 1 1.11-.514 1.95 1.95 0 0 1 1.414.189c.403.214.754.557 1.063 1.015.31.465.542.977.685 1.517.153.542.195 1.11.125 1.668a4.7 4.7 0 0 1-1.235 2.721c-.085.086-.09.086-.012-.009a5 5 0 0 0 1.02-2.194 4.1 4.1 0 0 0-.018-1.804M7.538 8.357a.7.7 0 0 0 .172-.043h.008V8.31h-.004q-.54 0-1.071.36c-.319.217-.595.49-.815.806a4.9 4.9 0 0 0-.72 1.53 3.7 3.7 0 0 0-.098 1.684q.175.927.6 1.68c.28.525.7.963 1.213 1.264.243.132.51.213.784.24l.004-.017a2.76 2.76 0 0 1-1.68-1.247q-.577-.862-.763-1.988a3.6 3.6 0 0 1 .052-1.372 4.6 4.6 0 0 1 1.166-2.228c.281-.28.62-.495.994-.63a.7.7 0 0 1 .158-.035m8.94-.025h-.012q-.033-.008 0-.009a.9.9 0 0 1 .342.043c.582.199 1.078.59 1.406 1.11.33.471.566 1.028.716 1.663q.334 1.427-.386 2.957c-.218.491-.54.93-.943 1.286a2.1 2.1 0 0 1-1.088.488v-.021c.23-.058.45-.15.651-.275a3.3 3.3 0 0 0 1.08-1.208q.393-.714.553-1.556.165-.9-.069-1.8a4.7 4.7 0 0 0-.968-1.898 2.4 2.4 0 0 0-1.282-.78m-9.964.797a3.9 3.9 0 0 0-.848 1.285 6 6 0 0 0-.245.708c-.253.938-.12 1.92.403 2.957.446.878 1.029 1.41 1.757 1.585a.4.4 0 0 0 .142.013c.03 0 .034-.008 0-.017a2.7 2.7 0 0 1-1.393-1.028 4.6 4.6 0 0 1-.729-1.595 3.75 3.75 0 0 1 .017-2.014A4.7 4.7 0 0 1 6.287 9.6a2.84 2.84 0 0 1 1.183-.994q.202-.078.416-.112.09-.018 0-.017c-.489.017-.943.232-1.372.652m11.996 2.528a4.8 4.8 0 0 0-.69-1.958q-.664-1.053-1.629-1.213h-.004v-.013q.603.018 1.11.429a3.6 3.6 0 0 1 .986 1.328q.346.772.411 1.616a3 3 0 0 1-.021.638 5.1 5.1 0 0 1-.6 1.843 2.7 2.7 0 0 1-1.402 1.29 1 1 0 0 1-.394.064c-.026 0-.026 0 0-.012l.111-.03c.086-.017.155-.039.198-.056a2.8 2.8 0 0 0 1.255-1.161c.302-.505.511-1.06.617-1.638q.117-.605.052-1.127M7.778 8.7a.2.2 0 0 1-.05.013.9.9 0 0 0-.3.094 2.8 2.8 0 0 0-.837.686v.013h.017c.295-.392.71-.676 1.183-.806zm8.602.017a.5.5 0 0 1 .206.056c.465.24.852.61 1.114 1.063 0 .008 0 .013-.009.017h-.008a2.74 2.74 0 0 0-1.05-1.024 1 1 0 0 0-.326-.12h.043c.008.008.021.008.03.008M6.728 9.844a2.37 2.37 0 0 1 1.518-1.028q.128-.02 0-.013-.817.04-1.453.754a4.1 4.1 0 0 0-.935 1.972 2.5 2.5 0 0 0-.042.694c.06.783.334 1.535.792 2.173.455.63 1 .951 1.638.973l.008-.005q.002-.011-.008-.017a1.9 1.9 0 0 1-.643-.205c-.815-.468-1.333-1.299-1.569-2.503a2.9 2.9 0 0 1-.017-1.076 4.2 4.2 0 0 1 .711-1.714zm9.095-1.037h-.005q-.006 0 0 0a.8.8 0 0 1 .266.017c.857.18 1.492.849 1.886 2.002q.378 1.094.107 2.13c-.115.465-.303.91-.557 1.316a2.44 2.44 0 0 1-1.02.942c-.212.09-.439.14-.669.15v-.017c.592-.068 1.089-.42 1.5-1.058.678-1.055.858-2.126.549-3.215a4.1 4.1 0 0 0-.741-1.461 2.2 2.2 0 0 0-1.316-.806M6.3 13.033c.188.695.579 1.32 1.123 1.791q.545.438 1.174.373c.707-.064 1.359-.471 1.954-1.2q.757-.94 1.363-1.984a.04.04 0 0 0 0-.047 10.4 10.4 0 0 0-1.388-1.903c-.354-.4-.79-.719-1.278-.934a1.72 1.72 0 0 0-1.542.047c-.733.398-1.23 1.136-1.483 2.207a2.94 2.94 0 0 0 .077 1.65m11.083.814a2.7 2.7 0 0 1-.952 1.114 1.54 1.54 0 0 1-1.427.125 2.7 2.7 0 0 1-.998-.647 7 7 0 0 1-.386-.442 16 16 0 0 1-1.363-2.014.04.04 0 0 1 0-.043 9.2 9.2 0 0 1 1.569-2.083c.29-.292.63-.531 1.002-.707a1.62 1.62 0 0 1 1.45-.021c.442.233.802.596 1.032 1.041a3.67 3.67 0 0 1 .073 3.682zm-9.935 1.539a1 1 0 0 0 .198.081q.193.046.008-.026a2.6 2.6 0 0 1-1.2-.947v.009c.253.386.583.677.994.883m8.923.077c.39-.148.736-.39 1.008-.707v.013c-.261.33-.613.578-1.012.711-.004-.008 0-.013.004-.017" clip-rule="evenodd"/></g><defs><linearGradient id="b" x1="4.466" x2="29.207" y1="4.161" y2="32.58" gradientUnits="userSpaceOnUse"><stop stop-color="#1A1E21"/><stop offset="1" stop-color="#06060A"/></linearGradient><clipPath id="a"><path fill="#fff" d="M0 0h24v24H0z"/></clipPath></defs></svg>
